X:195
T:Dover Pier
C:Preston, 1791
S:Colin Hume's website,  colinhume.com  - chords can also be printed below the stave.
Q:1/4=112
M:2/4
L:1/16
K:C
P:A
|: d2 | "C"c2e2 E2G2 | "F"F2 D4 A2 | "Dm"d2f2A2c2 | "G"B2 G4 B2 |\
"C"c2e2 "F"f2a2 | "C"g2e2 "F"d2c2 | "G"G2B2 d2f2 | "C"e2 c4 :|
P:B
|: g2 | "C"g2e2 "G/B"d2e2 | "Am"c2c'2 b2a2 | "C"g2e2 d2c2 | "G"B2d2 B2G2 |\
"F"A2c2 "Em"e2G2 | "Dm"F2A2 "C"d2E2 | "G/B"D2G2 "G"B2d2 | "C"e2 c4 :|

